src/assets/icons/logo.svg

<svg width="68" height="31" viewBox="0 0 68 31" fill="none" xmlns="http://www.w3.org/2000/svg">
<g id="Vector">
<path fill-rule="evenodd" clip-rule="evenodd" d="M13.1377 13.02V0H14.3889V13.02H13.1377Z" fill="#737C8E"/>
<path fill-rule="evenodd" clip-rule="evenodd" d="M28.1523 1.24H14.3889V0H28.1523V1.24Z" fill="#737C8E"/>
<path fill-rule="evenodd" clip-rule="evenodd" d="M13.1377 31V17.98H14.3889V31H13.1377Z" fill="#737C8E"/>
<path fill-rule="evenodd" clip-rule="evenodd" d="M21.2706 16.12H13.1377V14.88H21.2706V16.12Z" fill="#737C8E"/>
<path fill-rule="evenodd" clip-rule="evenodd" d="M6.25606 14.88H13.1377V16.12H6.25606V14.88Z" fill="#737C8E"/>
<path fill-rule="evenodd" clip-rule="evenodd" d="M2.57486 13.4944C3.4581 14.3024 4.82328 14.88 6.72526 14.88V16.12C4.5608 16.12 2.87616 15.4576 1.72618 14.4056C0.578755 13.3559 1.49156e-07 11.9496 0 10.54C-1.49156e-07 9.13039 0.578755 7.7241 1.72618 6.67442C2.87616 5.62242 4.5608 4.96 6.72526 4.96V6.2C4.82328 6.2 3.4581 6.77758 2.57486 7.58558C1.68907 8.3959 1.25121 9.46961 1.25121 10.54C1.25121 11.6104 1.68907 12.6841 2.57486 13.4944Z" fill="#737C8E"/>
<path fill-rule="evenodd" clip-rule="evenodd" d="M24.4255 17.4884C23.6179 16.6881 22.3761 16.12 20.645 16.12V14.88C22.6675 14.88 24.2409 15.5519 25.3102 16.6116C26.3736 17.6655 26.9011 19.0666 26.9011 20.46C26.9011 21.8534 26.3736 23.2545 25.3102 24.3084C24.2409 25.3681 22.6675 26.04 20.645 26.04V24.8C22.3761 24.8 23.6179 24.2319 24.4255 23.4316C25.2389 22.6255 25.6499 21.5466 25.6499 20.46C25.6499 19.3734 25.2389 18.2945 24.4255 17.4884Z" fill="#737C8E"/>
<path d="M24.1084 12.4744C23.3476 12.4744 22.662 12.3058 22.0514 11.9685C21.4408 11.6213 20.9603 11.1451 20.61 10.54C20.2596 9.93488 20.0845 9.2504 20.0845 8.48656C20.0845 7.72272 20.2596 7.03824 20.61 6.43312C20.9603 5.828 21.4408 5.3568 22.0514 5.01952C22.662 4.68224 23.3476 4.5136 24.1084 4.5136C24.8691 4.5136 25.5548 4.68224 26.1654 5.01952C26.776 5.3568 27.2514 5.828 27.5917 6.43312C27.9421 7.03824 28.1173 7.72272 28.1173 8.48656C28.1173 9.2504 27.9421 9.93488 27.5917 10.54C27.2514 11.1451 26.776 11.6213 26.1654 11.9685C25.5548 12.3058 24.8691 12.4744 24.1084 12.4744ZM24.1084 11.537C24.6689 11.537 25.1694 11.413 25.6098 11.165C26.0603 10.907 26.4106 10.545 26.6608 10.0787C26.9111 9.61248 27.0362 9.08176 27.0362 8.48656C27.0362 7.89136 26.9111 7.36064 26.6608 6.8944C26.4106 6.42816 26.0603 6.07104 25.6098 5.82304C25.1694 5.56512 24.6689 5.43616 24.1084 5.43616C23.5478 5.43616 23.0423 5.56512 22.5919 5.82304C22.1515 6.07104 21.8011 6.42816 21.5409 6.8944C21.2906 7.36064 21.1655 7.89136 21.1655 8.48656C21.1655 9.08176 21.2906 9.61248 21.5409 10.0787C21.8011 10.545 22.1515 10.907 22.5919 11.165C23.0423 11.413 23.5478 11.537 24.1084 11.537Z" fill="#737C8E"/>
<path d="M33.5218 12.4744C32.761 12.4744 32.0754 12.3058 31.4648 11.9685C30.8542 11.6213 30.3737 11.1451 30.0234 10.54C29.6731 9.93488 29.4979 9.2504 29.4979 8.48656C29.4979 7.72272 29.6731 7.03824 30.0234 6.43312C30.3737 5.828 30.8542 5.3568 31.4648 5.01952C32.0754 4.68224 32.761 4.5136 33.5218 4.5136C34.2825 4.5136 34.9682 4.68224 35.5788 5.01952C36.1894 5.3568 36.6648 5.828 37.0052 6.43312C37.3555 7.03824 37.5307 7.72272 37.5307 8.48656C37.5307 9.2504 37.3555 9.93488 37.0052 10.54C36.6648 11.1451 36.1894 11.6213 35.5788 11.9685C34.9682 12.3058 34.2825 12.4744 33.5218 12.4744ZM33.5218 11.537C34.0823 11.537 34.5828 11.413 35.0232 11.165C35.4737 10.907 35.824 10.545 36.0743 10.0787C36.3245 9.61248 36.4496 9.08176 36.4496 8.48656C36.4496 7.89136 36.3245 7.36064 36.0743 6.8944C35.824 6.42816 35.4737 6.07104 35.0232 5.82304C34.5828 5.56512 34.0823 5.43616 33.5218 5.43616C32.9612 5.43616 32.4558 5.56512 32.0053 5.82304C31.5649 6.07104 31.2146 6.42816 30.9543 6.8944C30.7041 7.36064 30.5789 7.89136 30.5789 8.48656C30.5789 9.08176 30.7041 9.61248 30.9543 10.0787C31.2146 10.545 31.5649 10.907 32.0053 11.165C32.4558 11.413 32.9612 11.537 33.5218 11.537Z" fill="#737C8E"/>
<path d="M46.9141 1.35904V12.4H45.8931V10.8525C45.5728 11.3782 45.1473 11.78 44.6168 12.0578C44.0963 12.3355 43.5058 12.4744 42.8451 12.4744C42.1044 12.4744 41.4338 12.3058 40.8332 11.9685C40.2326 11.6312 39.7621 11.16 39.4218 10.5549C39.0815 9.94976 38.9113 9.26032 38.9113 8.48656C38.9113 7.7128 39.0815 7.02336 39.4218 6.41824C39.7621 5.81312 40.2326 5.34688 40.8332 5.01952C41.4338 4.68224 42.1044 4.5136 42.8451 4.5136C43.4857 4.5136 44.0613 4.64752 44.5718 4.91536C45.0923 5.17328 45.5177 5.5552 45.848 6.06112V1.35904H46.9141ZM42.9352 11.537C43.4857 11.537 43.9812 11.413 44.4216 11.165C44.8721 10.907 45.2224 10.545 45.4727 10.0787C45.7329 9.61248 45.863 9.08176 45.863 8.48656C45.863 7.89136 45.7329 7.36064 45.4727 6.8944C45.2224 6.42816 44.8721 6.07104 44.4216 5.82304C43.9812 5.56512 43.4857 5.43616 42.9352 5.43616C42.3747 5.43616 41.8692 5.56512 41.4187 5.82304C40.9783 6.07104 40.628 6.42816 40.3677 6.8944C40.1175 7.36064 39.9924 7.89136 39.9924 8.48656C39.9924 9.08176 40.1175 9.61248 40.3677 10.0787C40.628 10.545 40.9783 10.907 41.4187 11.165C41.8692 11.413 42.3747 11.537 42.9352 11.537Z" fill="#737C8E"/>
<path d="M32.5465 25.5638C32.3463 25.7424 32.0961 25.8813 31.7958 25.9805C31.5055 26.0698 31.2002 26.1144 30.8799 26.1144C30.1392 26.1144 29.5686 25.916 29.1683 25.5192C28.7679 25.1224 28.5677 24.5619 28.5677 23.8378V19.1059H27.1563V18.2131H28.5677V16.5019H29.6337V18.2131H32.036V19.1059H29.6337V23.7782C29.6337 24.2445 29.7488 24.6016 29.979 24.8496C30.2193 25.0877 30.5596 25.2067 31 25.2067C31.2203 25.2067 31.4305 25.172 31.6306 25.1026C31.8409 25.0331 32.021 24.9339 32.1712 24.805L32.5465 25.5638Z" fill="#737C8E"/>
<path d="M37.4367 26.1144C36.676 26.1144 35.9903 25.9458 35.3797 25.6085C34.7691 25.2613 34.2887 24.7851 33.9383 24.18C33.588 23.5749 33.4128 22.8904 33.4128 22.1266C33.4128 21.3627 33.588 20.6782 33.9383 20.0731C34.2887 19.468 34.7691 18.9968 35.3797 18.6595C35.9903 18.3222 36.676 18.1536 37.4367 18.1536C38.1974 18.1536 38.8831 18.3222 39.4937 18.6595C40.1043 18.9968 40.5798 19.468 40.9201 20.0731C41.2704 20.6782 41.4456 21.3627 41.4456 22.1266C41.4456 22.8904 41.2704 23.5749 40.9201 24.18C40.5798 24.7851 40.1043 25.2613 39.4937 25.6085C38.8831 25.9458 38.1974 26.1144 37.4367 26.1144ZM37.4367 25.177C37.9972 25.177 38.4977 25.053 38.9382 24.805C39.3886 24.547 39.7389 24.185 39.9892 23.7187C40.2394 23.2525 40.3645 22.7218 40.3645 22.1266C40.3645 21.5314 40.2394 21.0006 39.9892 20.5344C39.7389 20.0682 39.3886 19.711 38.9382 19.463C38.4977 19.2051 37.9972 19.0762 37.4367 19.0762C36.8762 19.0762 36.3707 19.2051 35.9202 19.463C35.4798 19.711 35.1295 20.0682 34.8692 20.5344C34.619 21.0006 34.4939 21.5314 34.4939 22.1266C34.4939 22.7218 34.619 23.2525 34.8692 23.7187C35.1295 24.185 35.4798 24.547 35.9202 24.805C36.3707 25.053 36.8762 25.177 37.4367 25.177Z" fill="#737C8E"/>
<path d="M44.643 19.7458C44.8932 19.22 45.2636 18.8232 45.7541 18.5554C46.2545 18.2875 46.8701 18.1536 47.6009 18.1536V19.1803L47.3456 19.1654C46.5148 19.1654 45.8642 19.4184 45.3937 19.9243C44.9233 20.4302 44.688 21.1395 44.688 22.0522V26.04H43.622V18.2131H44.643V19.7458Z" fill="#737C8E"/>
<path d="M49.531 18.2131H50.5971V26.04H49.531V18.2131ZM50.0716 16.5019C49.8514 16.5019 49.6662 16.4275 49.516 16.2787C49.3659 16.1299 49.2908 15.9514 49.2908 15.743C49.2908 15.5446 49.3659 15.371 49.516 15.2222C49.6662 15.0734 49.8514 14.999 50.0716 14.999C50.2918 14.999 50.477 15.0734 50.6271 15.2222C50.7773 15.3611 50.8523 15.5298 50.8523 15.7282C50.8523 15.9464 50.7773 16.1299 50.6271 16.2787C50.477 16.4275 50.2918 16.5019 50.0716 16.5019Z" fill="#737C8E"/>
<path d="M60.4399 22.4539H53.8335C53.8936 23.2674 54.2089 23.927 54.7795 24.433C55.35 24.929 56.0707 25.177 56.9415 25.177C57.432 25.177 57.8825 25.0926 58.2929 24.924C58.7033 24.7454 59.0586 24.4875 59.3589 24.1502L59.9595 24.8347C59.6091 25.2514 59.1687 25.5688 58.6382 25.787C58.1177 26.0053 57.5421 26.1144 56.9115 26.1144C56.1007 26.1144 55.38 25.9458 54.7494 25.6085C54.1288 25.2613 53.6433 24.7851 53.293 24.18C52.9427 23.5749 52.7675 22.8904 52.7675 22.1266C52.7675 21.3627 52.9327 20.6782 53.263 20.0731C53.6033 19.468 54.0638 18.9968 54.6443 18.6595C55.2349 18.3222 55.8955 18.1536 56.6262 18.1536C57.3569 18.1536 58.0126 18.3222 58.5931 18.6595C59.1737 18.9968 59.6292 19.468 59.9595 20.0731C60.2898 20.6683 60.455 21.3528 60.455 22.1266L60.4399 22.4539ZM56.6262 19.0613C55.8655 19.0613 55.2249 19.3043 54.7044 19.7904C54.1939 20.2666 53.9036 20.8915 53.8335 21.6653H59.434C59.3639 20.8915 59.0686 20.2666 58.5481 19.7904C58.0376 19.3043 57.397 19.0613 56.6262 19.0613Z" fill="#737C8E"/>
<path d="M64.7418 26.1144C64.1012 26.1144 63.4856 26.0251 62.895 25.8466C62.3145 25.6581 61.859 25.425 61.5287 25.1472L62.0092 24.3139C62.3395 24.5718 62.7549 24.7851 63.2554 24.9538C63.7559 25.1125 64.2764 25.1918 64.8169 25.1918C65.5376 25.1918 66.0681 25.0827 66.4085 24.8645C66.7588 24.6363 66.934 24.3189 66.934 23.9122C66.934 23.6245 66.8389 23.4013 66.6487 23.2426C66.4585 23.0739 66.2183 22.9499 65.928 22.8706C65.6377 22.7813 65.2523 22.697 64.7719 22.6176C64.1312 22.4986 63.6157 22.3795 63.2254 22.2605C62.835 22.1315 62.4997 21.9182 62.2194 21.6206C61.9491 21.323 61.814 20.9114 61.814 20.3856C61.814 19.7309 62.0893 19.1952 62.6398 18.7786C63.1903 18.3619 63.9561 18.1536 64.937 18.1536C65.4475 18.1536 65.958 18.223 66.4685 18.3619C66.979 18.4909 67.3994 18.6645 67.7297 18.8827L67.2643 19.7309C66.6137 19.2845 65.8379 19.0613 64.937 19.0613C64.2564 19.0613 63.7409 19.1803 63.3905 19.4184C63.0502 19.6565 62.88 19.969 62.88 20.3558C62.88 20.6534 62.9751 20.8915 63.1653 21.0701C63.3655 21.2486 63.6107 21.3826 63.901 21.4718C64.1913 21.5512 64.5917 21.6355 65.1022 21.7248C65.7328 21.8438 66.2383 21.9629 66.6187 22.0819C66.999 22.201 67.3243 22.4043 67.5946 22.692C67.8649 22.9797 68 23.3765 68 23.8824C68 24.5669 67.7097 25.1125 67.1292 25.5192C66.5586 25.916 65.7628 26.1144 64.7418 26.1144Z" fill="#737C8E"/>
</g>
</svg>

<svg width="68" height="31" fill="none" xmlns="http://www.w3.org/2000/svg"><g fill="#737C8E"><path fill-rule="evenodd" clip-rule="evenodd" d="M13.138 13.02V0h1.25v13.02h-1.25ZM28.152 1.24H14.39V0h13.763v1.24ZM13.138 31V17.98h1.25V31h-1.25ZM21.27 16.12h-8.132v-1.24h8.133v1.24ZM6.256 14.88h6.882v1.24H6.256v-1.24Z"/><path fill-rule="evenodd" clip-rule="evenodd" d="M2.575 13.494c.883.808 2.248 1.386 4.15 1.386v1.24c-2.164 0-3.849-.662-4.999-1.714A5.223 5.223 0 0 1 0 10.54c0-1.41.579-2.816 1.726-3.866 1.15-1.052 2.835-1.714 5-1.714V6.2c-1.903 0-3.268.578-4.151 1.386A3.988 3.988 0 0 0 1.25 10.54c0 1.07.438 2.144 1.324 2.954ZM24.425 17.488c-.807-.8-2.049-1.368-3.78-1.368v-1.24c2.023 0 3.596.672 4.665 1.732a5.403 5.403 0 0 1 1.591 3.848 5.403 5.403 0 0 1-1.59 3.848c-1.07 1.06-2.643 1.732-4.666 1.732V24.8c1.731 0 2.973-.568 3.78-1.368a4.17 4.17 0 0 0 1.225-2.972 4.17 4.17 0 0 0-1.224-2.972Z"/><path d="M24.108 12.474c-.76 0-1.446-.168-2.057-.505a3.815 3.815 0 0 1-1.441-1.429c-.35-.605-.526-1.29-.526-2.053 0-.764.176-1.449.526-2.054.35-.605.83-1.076 1.441-1.413.611-.338 1.297-.506 2.057-.506.761 0 1.447.168 2.057.506.611.337 1.086.808 1.427 1.413.35.605.525 1.29.525 2.054 0 .763-.175 1.448-.525 2.053a3.707 3.707 0 0 1-1.427 1.429c-.61.337-1.296.505-2.057.505Zm0-.937c.56 0 1.061-.124 1.502-.372.45-.258.8-.62 1.05-1.086.251-.467.376-.997.376-1.592 0-.596-.125-1.126-.375-1.593-.25-.466-.6-.823-1.051-1.071a2.915 2.915 0 0 0-1.502-.387c-.56 0-1.066.13-1.516.387a2.72 2.72 0 0 0-1.051 1.071c-.25.467-.375.997-.375 1.593 0 .595.125 1.125.375 1.592.26.466.61.828 1.05 1.086.451.248.957.372 1.517.372ZM33.522 12.474c-.761 0-1.447-.168-2.057-.505a3.815 3.815 0 0 1-1.442-1.429c-.35-.605-.525-1.29-.525-2.053 0-.764.175-1.449.525-2.054.35-.605.831-1.076 1.442-1.413.61-.338 1.296-.506 2.057-.506.76 0 1.446.168 2.057.506.61.337 1.086.808 1.426 1.413.35.605.526 1.29.526 2.054 0 .763-.175 1.448-.526 2.053a3.708 3.708 0 0 1-1.426 1.429c-.61.337-1.297.505-2.057.505Zm0-.937c.56 0 1.06-.124 1.501-.372.45-.258.801-.62 1.051-1.086.25-.467.376-.997.376-1.592 0-.596-.126-1.126-.376-1.593-.25-.466-.6-.823-1.05-1.071a2.915 2.915 0 0 0-1.502-.387c-.56 0-1.066.13-1.517.387a2.72 2.72 0 0 0-1.05 1.071c-.25.467-.376.997-.376 1.593 0 .595.125 1.125.375 1.592.26.466.61.828 1.051 1.086.45.248.956.372 1.517.372ZM46.914 1.359V12.4h-1.02v-1.548c-.321.526-.747.928-1.277 1.206-.52.277-1.111.416-1.772.416-.74 0-1.411-.168-2.012-.505a3.632 3.632 0 0 1-1.411-1.414c-.34-.605-.51-1.295-.51-2.068 0-.774.17-1.464.51-2.069a3.53 3.53 0 0 1 1.411-1.398 4.037 4.037 0 0 1 2.012-.506c.64 0 1.216.134 1.727.401.52.258.946.64 1.276 1.146V1.36h1.066Zm-3.979 10.178c.55 0 1.046-.124 1.487-.372.45-.258.8-.62 1.05-1.086.26-.467.391-.997.391-1.592 0-.596-.13-1.126-.39-1.593-.25-.466-.6-.823-1.051-1.071a2.886 2.886 0 0 0-1.487-.387c-.56 0-1.066.13-1.516.387a2.72 2.72 0 0 0-1.051 1.071c-.25.467-.376.997-.376 1.593 0 .595.126 1.125.376 1.592.26.466.61.828 1.05 1.086.451.248.957.372 1.517.372ZM32.547 25.564a2.1 2.1 0 0 1-.751.416c-.29.09-.596.134-.916.134-.74 0-1.311-.198-1.712-.595-.4-.397-.6-.957-.6-1.681v-4.732h-1.412v-.893h1.412v-1.711h1.066v1.711h2.402v.893h-2.402v4.672c0 .466.115.824.345 1.072.24.238.58.357 1.021.357.22 0 .43-.035.63-.104.21-.07.391-.17.541-.298l.376.759ZM37.437 26.114c-.761 0-1.447-.168-2.057-.506a3.816 3.816 0 0 1-1.442-1.428c-.35-.605-.525-1.29-.525-2.053 0-.764.175-1.449.525-2.054.35-.605.831-1.076 1.442-1.413.61-.338 1.296-.506 2.057-.506.76 0 1.446.168 2.057.506.61.337 1.086.808 1.426 1.413.35.605.526 1.29.526 2.054 0 .763-.176 1.448-.526 2.053a3.707 3.707 0 0 1-1.426 1.428c-.61.338-1.297.506-2.057.506Zm0-.937c.56 0 1.06-.124 1.501-.372.45-.258.8-.62 1.051-1.086.25-.466.376-.997.376-1.592 0-.596-.126-1.126-.376-1.593-.25-.466-.6-.823-1.05-1.071a2.916 2.916 0 0 0-1.502-.387c-.56 0-1.066.13-1.517.387a2.72 2.72 0 0 0-1.05 1.071c-.251.467-.376.997-.376 1.593 0 .595.125 1.126.375 1.592.26.466.61.828 1.051 1.086.45.248.956.372 1.517.372ZM44.643 19.746c.25-.526.62-.923 1.111-1.19.5-.268 1.116-.402 1.847-.402v1.026l-.255-.015c-.831 0-1.482.253-1.952.76-.47.505-.706 1.215-.706 2.127v3.988h-1.066v-7.827h1.021v1.533ZM49.531 18.213h1.066v7.827h-1.066v-7.827Zm.54-1.711a.759.759 0 0 1-.555-.223.727.727 0 0 1-.225-.536.71.71 0 0 1 .225-.52.759.759 0 0 1 .556-.224c.22 0 .405.074.555.223.15.14.225.308.225.506a.744.744 0 0 1-.225.55.758.758 0 0 1-.555.224ZM60.44 22.454h-6.606c.06.813.375 1.473.945 1.979.571.496 1.292.744 2.162.744.491 0 .941-.084 1.352-.253.41-.179.766-.436 1.066-.774l.6.685a3.37 3.37 0 0 1-1.32.952 4.422 4.422 0 0 1-1.728.327c-.81 0-1.531-.168-2.162-.506a3.785 3.785 0 0 1-1.456-1.428c-.35-.605-.526-1.29-.526-2.053 0-.764.166-1.449.496-2.054.34-.605.8-1.076 1.381-1.413a3.925 3.925 0 0 1 1.982-.506c.73 0 1.387.168 1.967.506.58.337 1.036.808 1.366 1.413.33.595.496 1.28.496 2.054l-.015.327Zm-3.814-3.393c-.76 0-1.401.243-1.922.73-.51.476-.8 1.1-.87 1.874h5.6c-.07-.773-.365-1.398-.886-1.875-.51-.486-1.151-.729-1.922-.729ZM64.742 26.114c-.64 0-1.256-.089-1.847-.267-.58-.189-1.036-.422-1.366-.7l.48-.833c.33.258.746.471 1.246.64.5.159 1.021.238 1.562.238.72 0 1.251-.11 1.592-.328.35-.228.525-.545.525-.952 0-.287-.095-.51-.285-.67a1.77 1.77 0 0 0-.721-.371 9.164 9.164 0 0 0-1.156-.253 14.718 14.718 0 0 1-1.547-.357 2.391 2.391 0 0 1-1.006-.64c-.27-.298-.405-.71-.405-1.235 0-.655.275-1.19.826-1.607.55-.417 1.316-.625 2.297-.625.51 0 1.021.069 1.532.208.51.129.93.303 1.26.52l-.465.849c-.65-.447-1.426-.67-2.327-.67-.68 0-1.196.12-1.546.357-.34.239-.511.551-.511.938 0 .297.095.535.285.714.2.179.446.313.736.402.29.08.69.163 1.201.253.63.119 1.136.238 1.517.357.38.119.705.322.976.61.27.288.405.684.405 1.19 0 .685-.29 1.23-.87 1.637-.571.397-1.367.595-2.388.595Z"/></g></svg>
